dist/uploads/catalog-sidebar-icons/1/i-catalog-19.svg

<svg width="38" height="38" viewBox="0 0 38 38" fill="none" xmlns="http://www.w3.org/2000/svg">
<path d="M13.6084 24.9158H24.6769V28.7011H13.6084V24.9158Z" fill="#FFC800"/>
<path d="M13.6084 29.5916H24.6769V35.8751H13.6084V29.5916Z" fill="#FFC800"/>
<path d="M35.3525 20.8817H25.5673V35.8752H35.3525C35.628 35.8749 35.8921 35.7653 36.0869 35.5705C36.2817 35.3757 36.3912 35.1116 36.3915 34.8361V21.9208C36.3913 21.6453 36.2817 21.3812 36.0869 21.1864C35.8921 20.9916 35.628 20.882 35.3525 20.8817ZM34.2877 22.663H28.0507C27.9326 22.663 27.8193 22.616 27.7358 22.5325C27.6523 22.449 27.6054 22.3358 27.6054 22.2177C27.6054 22.0995 27.6523 21.9863 27.7358 21.9028C27.8193 21.8193 27.9326 21.7723 28.0507 21.7723H34.2877C34.4058 21.7723 34.5191 21.8193 34.6026 21.9028C34.6861 21.9863 34.7331 22.0995 34.7331 22.2177C34.7331 22.3358 34.6861 22.449 34.6026 22.5325C34.5191 22.616 34.4058 22.663 34.2877 22.663Z" fill="#FFC800"/>
<path d="M13.6084 20.8817H24.6769V24.0251H13.6084V20.8817Z" fill="#FFC800"/>
<path d="M1.70264 21.9208V34.8361C1.70295 35.1116 1.81252 35.3757 2.00732 35.5705C2.20211 35.7653 2.46622 35.8749 2.7417 35.8752H12.7177V20.8817H2.7417C2.46621 20.882 2.20209 20.9916 2.0073 21.1864C1.8125 21.3812 1.70293 21.6453 1.70264 21.9208ZM4.399 21.7723H10.636C10.7541 21.7723 10.8673 21.8193 10.9509 21.9028C11.0344 21.9863 11.0813 22.0995 11.0813 22.2177C11.0813 22.3358 11.0344 22.449 10.9509 22.5325C10.8673 22.616 10.7541 22.663 10.636 22.663H4.399C4.2809 22.663 4.16763 22.616 4.08412 22.5325C4.00061 22.449 3.95369 22.3358 3.95369 22.2177C3.95369 22.0995 4.00061 21.9863 4.08412 21.9028C4.16763 21.8193 4.2809 21.7723 4.399 21.7723Z" fill="#FFC800"/>
<path d="M16.9081 7.94714H21.039V9.90964H16.9081V7.94714Z" fill="#FFC800"/>
<path d="M13.2283 2.12476H24.677V7.0563H13.2283V2.12476Z" fill="#FFC800"/>
<path d="M25.5673 9.90978H36.2968V2.12476H25.5673V9.90978ZM29.3516 8.26049H33.3767C33.4948 8.26049 33.6081 8.30741 33.6916 8.39092C33.7751 8.47444 33.822 8.5877 33.822 8.70581C33.822 8.82391 33.7751 8.93718 33.6916 9.02069C33.6081 9.1042 33.4948 9.15112 33.3767 9.15112H29.3516C29.2335 9.15112 29.1202 9.1042 29.0367 9.02069C28.9532 8.93718 28.9063 8.82391 28.9063 8.70581C28.9063 8.5877 28.9532 8.47444 29.0367 8.39092C29.1202 8.30741 29.2335 8.26049 29.3516 8.26049Z" fill="#FFC800"/>
<path d="M15.6316 13.6855H22.3148L21.1806 10.8003H16.7659L15.6316 13.6855Z" fill="#FFC800"/>
<path d="M12.3378 2.12476H1.60828V9.90978H12.3378V2.12476ZM9.0303 9.15112H5.00527C4.88717 9.15112 4.7739 9.1042 4.69039 9.02069C4.60687 8.93718 4.55996 8.82391 4.55996 8.70581C4.55996 8.5877 4.60687 8.47444 4.69039 8.39092C4.7739 8.30741 4.88717 8.26049 5.00527 8.26049H9.0303C9.14841 8.26049 9.26167 8.30741 9.34519 8.39092C9.4287 8.47444 9.47561 8.5877 9.47561 8.70581C9.47561 8.82391 9.4287 8.93718 9.34519 9.02069C9.26167 9.1042 9.14841 9.15112 9.0303 9.15112Z" fill="#FFC800"/>
</svg>

<svg width="38" height="38" fill="none" xmlns="http://www.w3.org/2000/svg"><path d="M13.608 24.916h11.069V28.7H13.608v-3.785zm0 4.676h11.069v6.283H13.608v-6.283zm21.744-8.71h-9.785v14.993h9.785a1.04 1.04 0 0 0 1.04-1.039V21.921a1.04 1.04 0 0 0-1.04-1.04zm-1.064 1.781H28.05a.445.445 0 0 1 0-.89h6.237a.445.445 0 0 1 0 .89zm-20.68-1.781h11.069v3.143H13.608v-3.143zM1.703 21.92v12.916a1.04 1.04 0 0 0 1.039 1.04h9.976V20.881H2.742a1.04 1.04 0 0 0-1.04 1.039zm2.696-.148h6.237a.446.446 0 0 1 0 .891H4.399a.445.445 0 0 1 0-.89zM16.908 7.947h4.131V9.91h-4.13V7.947zm-3.68-5.822h11.449v4.931H13.228V2.125zM25.567 9.91h10.73V2.125h-10.73V9.91zm3.785-1.65h4.025a.445.445 0 1 1 0 .891h-4.025a.445.445 0 1 1 0-.89zm-13.72 5.425h6.683L21.18 10.8h-4.415l-1.134 2.885zm-3.294-11.56H1.608V9.91h10.73V2.125zM9.03 9.15H5.005a.445.445 0 0 1 0-.89H9.03a.445.445 0 0 1 0 .89z" fill="#FFC800"/></svg>
